X:1
T: The Tartan Hopper
C:
R:Jig
Q:180
K:Am
M:6/8
L:1/16
|:e2|A4A2 c2B2A2|d2e2f2 e2c2A2|f4A2 e4A2|B2e2^d2 e2=d2B2|
A4A2 c2B2A2|a2^g2a2 e2f2=g2|f2e2d2 c2B2A2|E2A2^G2 A4B2|
c4c2 e2d2c2|g2e2c2 c2d2e2|d4G2 B2A2G2|d2B2d2 e4d2|
c2B2A2 e2^f2^g2|a2e2c2 f4d2|e2^d2e2 c2B2A2|E2A2^G2 A4:|
